X:1
T:Giu per la mala
T:Giovanni Animuccia
T:Source : Primo libro delle Laude spirituali a tre voci---Roma---A.Gardano---1583. Editor : André Vierendeels (22/11/17). Notes : Original clefs : C1, C2, C4 Editorial accidentals above the staff
T:Giu per la mala
T:©
T:©
C:Giovanni Animuccia
Z:©
%%score [ 1 2 3 ]
L:1/8
Q:1/4=120
M:4/4
K:F
V:1 treble nm="Soprano" snm="S"
V:2 treble nm="Alto" snm="A"
V:3 treble-8 nm="Tenor" snm="T"
V:1
"^1)" A4 A2 A2 | A4 B4 | A8 | A8 | G4 G2 G2 | G4 F4 | E8 | A4 A2 A2 | A4 B4 | A8 | A8 | F4 F2 G2 | %12
w: Giu per la|ma- la|vi-|a,|l'a- ni- ma|mia ne|và,|s'el- la non|hà soc-|cor-|so,|pre- sto mor-|
w: Il de- mo-|nio l'in-|gan-|na,|con la sua|fal- si-|tà,|e'l mon- do'an-|chor l'in-|vi-|ta,|a far l'in-|
 E4 E4 | D8 | A4 A2 A2 | A4 B4 | A8 | A8 | F4 F2 G2 | E4 E4 | D8 :| %21
w: ta sa-|rà.|S'el- la non|hà soc-|cor-|so,|pre- sto mor-|ta sa-|rà.|
w: i- qui-|tà.|S'el- la non|hà soc-|cor-|so,|pre- sto mor-|ta sa-|rà.|
V:2
"^2)""^1)" F4 F2 F2 | F4 G4 | F8 | F8 | E4 E2 E2 | E4 D4 | ^C8 | F4 F2 F2 | F4 G4 | F8 | F8 | %11
w: Giu per la|ma- la|vi-|a,|l'a- ni- ma|mia ne|và,|s'el- la non|hà soc-|cor-|so,|
w: A- iu- ta-|ti me-|schi-|na,|co'l don, che|Dio ti|dà|che co'l li-|be- 'ar-|bi-|trio,|
 D4 D2 B,2 |"^#""^#" C4 C4 | D8 | F4 F2 F2 | F4 G4 | F8 | F8 | D4 D2 B,2 |"^#""^#" C4 C4 | D8 :| %21
w: pre- sto mor-|ta sa-|rà.|S'el- la non|hà soc-|cor-|so|pre- sto mor-|ta sa-|rà.-|
w: poi me- ri-|tar ti|fà,|s'el- la non|hà soc-|cor-|so,|pre- sto mor-|ta sa-|rà.|
V:3
"^3)""^1)""^4)" d4 d2 d2 | d4 G4 | d8 | d8 | c4 c2 c2 | c4 d4 | A8 | d4 d2 d2 | d4 G4 | d8 | d8 | %11
w: Giu per la|ma- la|vi-|a,|l'a- ni- ma|mia ne|và,|s'el- la non|hà soc-|cor-|so,|
w: Ri- cor- ri'à|Gie- su|Chri-|sto,|che fit- to,|in Cro-|ce|sta, se tu'l|pre- ghi'hu-|mil-|ment',|
 B4 B2 G2 | A4 A4 | D8 | d4 d2 d2 | d4 G4 | d8 | d8 | B4 B2 G2 | A4 A4 | D8 :| %21
w: pre- sto mor-|ta sa-|rà.|S'el- la non|hà soc-|cor-|so|pre- sto mor-|ta sa-|rà|
w: la gra- tia|fi fa-|rà.|S'el- la non|hà soc-|cor-|so,|pre- sto mor-|ta sa-|rà.|

